projects/flag-game/flags/Mongolia.svg

<svg viewBox="0 0 1000 500" xmlns="http://www.w3.org/2000/svg"><path d="m0 0h1000v500h-1000z" fill="#c4272f"/><g fill-rule="evenodd"><path d="m333.332031 0h333.335938v500h-333.335938zm0 0" fill="#015197"/><path d="m212.5 170.832031c0 25.316407-20.519531 45.835938-45.832031 45.835938-25.316407 0-45.835938-20.519531-45.835938-45.835938 0-25.3125 20.519531-45.832031 45.835938-45.832031 25.3125 0 45.832031 20.519531 45.832031 45.832031zm0 0" fill="#f9cf02"/><path d="m216.667969 150c0 27.613281-22.386719 50-50 50-27.617188 0-50-22.386719-50-50s22.382812-50 50-50c27.613281 0 50 22.386719 50 50zm0 0" fill="#c4272f"/><path d="m200 158.332031c0 18.410157-14.925781 33.335938-33.332031 33.335938-18.410157 0-33.335938-14.925781-33.335938-33.335938 0-18.40625 14.925781-33.332031 33.335938-33.332031 18.40625 0 33.332031 14.925781 33.332031 33.332031zm0 0" fill="#f9cf02"/><path d="m145.832031 95.832031c0 5.457031 2.246094 10.875 6.101563 14.734375 3.859375 3.855469 9.277344 6.101563 14.734375 6.101563 5.453125 0 10.875-2.246094 14.730469-6.101563 3.855468-3.859375 6.101562-9.277344 6.101562-14.734375 0-8.332031-5.207031-9.375-5.207031-12.5s3.125-7.289062-3.125-12.5c3.125 5.210938-2.085938 6.25-2.085938 11.460938 0 5.207031 2.085938 5.207031 2.085938 9.375zm0 0" fill="#f9cf02"/><path d="m75 225h41.667969v200h-41.667969zm0 0" fill="#f9cf02"/><path d="m216.667969 225h41.664062v200h-41.664062zm0 0" fill="#f9cf02"/><path d="m125 258.332031h83.332031v16.667969h-83.332031zm0 0" fill="#f9cf02"/><path d="m125 375h83.332031v16.667969h-83.332031zm0 0" fill="#f9cf02"/><path d="m125 225h83.332031l-41.664062 25zm0 175h83.332031l-41.664062 25zm0 0" fill="#f9cf02"/><path d="m210.832031 325c0 24.394531-19.773437 44.167969-44.164062 44.167969-24.394531 0-44.167969-19.773438-44.167969-44.167969s19.773438-44.167969 44.167969-44.167969c24.390625 0 44.164062 19.773438 44.164062 44.167969zm0 0" fill="#f9cf02" stroke="#c4272f" stroke-width="5"/></g><path d="m166.667969 280.832031c5.78125 0 11.527343 2.382813 15.613281 6.46875 4.089844 4.089844 6.46875 9.835938 6.46875 15.617188s-2.378906 11.527343-6.46875 15.613281c-4.085938 4.089844-9.832031 6.46875-15.613281 6.46875s-11.527344 2.378906-15.617188 6.46875c-4.085937 4.085938-6.46875 9.832031-6.46875 15.613281s2.382813 11.527344 6.46875 15.617188c4.089844 4.085937 9.835938 6.46875 15.617188 6.46875" fill="none" stroke="#c4272f" stroke-width="5"/><path d="m175 302.917969c0 4.601562-3.730469 8.332031-8.332031 8.332031-4.601563 0-8.335938-3.730469-8.335938-8.332031 0-4.605469 3.734375-8.335938 8.335938-8.335938 4.601562 0 8.332031 3.730469 8.332031 8.335938zm0 0" fill="#c4272f" fill-rule="evenodd"/><path d="m175 347.082031c0 4.605469-3.730469 8.335938-8.332031 8.335938-4.601563 0-8.335938-3.730469-8.335938-8.335938 0-4.601562 3.734375-8.332031 8.335938-8.332031 4.601562 0 8.332031 3.730469 8.332031 8.332031zm0 0" fill="#c4272f" fill-rule="evenodd"/></svg>

<?xml version="1.0" encoding="UTF-8"?>
<svg xmlns="http://www.w3.org/2000/svg" xmlns:xlink="http://www.w3.org/1999/xlink" viewBox="0 0 1000 500" version="1.1">
<g id="surface800">
<rect x="0" y="0" width="1000" height="500" style="fill:rgb(76.861572%,15.293884%,18.431091%);fill-opacity:1;stroke:none;"/>
<path style=" stroke:none;fill-rule:evenodd;fill:rgb(0.392151%,31.764221%,59.214783%);fill-opacity:1;" d="M 333.332031 0 L 666.667969 0 L 666.667969 500 L 333.332031 500 Z M 333.332031 0 "/>
<path style=" stroke:none;fill-rule:evenodd;fill:rgb(97.645569%,81.175232%,0.784302%);fill-opacity:1;" d="M 212.5 170.832031 C 212.5 196.148438 191.980469 216.667969 166.667969 216.667969 C 141.351562 216.667969 120.832031 196.148438 120.832031 170.832031 C 120.832031 145.519531 141.351562 125 166.667969 125 C 191.980469 125 212.5 145.519531 212.5 170.832031 Z M 212.5 170.832031 "/>
<path style=" stroke:none;fill-rule:evenodd;fill:rgb(76.861572%,15.293884%,18.431091%);fill-opacity:1;" d="M 216.667969 150 C 216.667969 177.613281 194.28125 200 166.667969 200 C 139.050781 200 116.667969 177.613281 116.667969 150 C 116.667969 122.386719 139.050781 100 166.667969 100 C 194.28125 100 216.667969 122.386719 216.667969 150 Z M 216.667969 150 "/>
<path style=" stroke:none;fill-rule:evenodd;fill:rgb(97.645569%,81.175232%,0.784302%);fill-opacity:1;" d="M 200 158.332031 C 200 176.742188 185.074219 191.667969 166.667969 191.667969 C 148.257812 191.667969 133.332031 176.742188 133.332031 158.332031 C 133.332031 139.925781 148.257812 125 166.667969 125 C 185.074219 125 200 139.925781 200 158.332031 Z M 200 158.332031 "/>
<path style=" stroke:none;fill-rule:evenodd;fill:rgb(97.645569%,81.175232%,0.784302%);fill-opacity:1;" d="M 145.832031 95.832031 C 145.832031 101.289062 148.078125 106.707031 151.933594 110.566406 C 155.792969 114.421875 161.210938 116.667969 166.667969 116.667969 C 172.121094 116.667969 177.542969 114.421875 181.398438 110.566406 C 185.253906 106.707031 187.5 101.289062 187.5 95.832031 C 187.5 87.5 182.292969 86.457031 182.292969 83.332031 C 182.292969 80.207031 185.417969 76.042969 179.167969 70.832031 C 182.292969 76.042969 177.082031 77.082031 177.082031 82.292969 C 177.082031 87.5 179.167969 87.5 179.167969 91.667969 Z M 145.832031 95.832031 "/>
<path style=" stroke:none;fill-rule:evenodd;fill:rgb(97.645569%,81.175232%,0.784302%);fill-opacity:1;" d="M 75 225 L 116.667969 225 L 116.667969 425 L 75 425 Z M 75 225 "/>
<path style=" stroke:none;fill-rule:evenodd;fill:rgb(97.645569%,81.175232%,0.784302%);fill-opacity:1;" d="M 216.667969 225 L 258.332031 225 L 258.332031 425 L 216.667969 425 Z M 216.667969 225 "/>
<path style=" stroke:none;fill-rule:evenodd;fill:rgb(97.645569%,81.175232%,0.784302%);fill-opacity:1;" d="M 125 258.332031 L 208.332031 258.332031 L 208.332031 275 L 125 275 Z M 125 258.332031 "/>
<path style=" stroke:none;fill-rule:evenodd;fill:rgb(97.645569%,81.175232%,0.784302%);fill-opacity:1;" d="M 125 375 L 208.332031 375 L 208.332031 391.667969 L 125 391.667969 Z M 125 375 "/>
<path style=" stroke:none;fill-rule:evenodd;fill:rgb(97.645569%,81.175232%,0.784302%);fill-opacity:1;" d="M 125 225 L 208.332031 225 L 166.667969 250 Z M 125 400 L 208.332031 400 L 166.667969 425 Z M 125 400 "/>
<path style="fill-rule:evenodd;fill:rgb(97.645569%,81.175232%,0.784302%);fill-opacity:1;stroke-width:5;stroke-linecap:butt;stroke-linejoin:miter;stroke:rgb(76.861572%,15.293884%,18.431091%);stroke-opacity:1;stroke-miterlimit:4;" d="M 210.832031 325 C 210.832031 349.394531 191.058594 369.167969 166.667969 369.167969 C 142.273438 369.167969 122.5 349.394531 122.5 325 C 122.5 300.605469 142.273438 280.832031 166.667969 280.832031 C 191.058594 280.832031 210.832031 300.605469 210.832031 325 Z M 210.832031 325 "/>
<path style="fill:none;stroke-width:5;stroke-linecap:butt;stroke-linejoin:miter;stroke:rgb(76.861572%,15.293884%,18.431091%);stroke-opacity:1;stroke-miterlimit:4;" d="M 166.667969 280.832031 C 172.449219 280.832031 178.195312 283.214844 182.28125 287.300781 C 186.371094 291.390625 188.75 297.136719 188.75 302.917969 C 188.75 308.699219 186.371094 314.445312 182.28125 318.53125 C 178.195312 322.621094 172.449219 325 166.667969 325 C 160.886719 325 155.140625 327.378906 151.050781 331.46875 C 146.964844 335.554688 144.582031 341.300781 144.582031 347.082031 C 144.582031 352.863281 146.964844 358.609375 151.050781 362.699219 C 155.140625 366.785156 160.886719 369.167969 166.667969 369.167969 "/>
<path style=" stroke:none;fill-rule:evenodd;fill:rgb(76.861572%,15.293884%,18.431091%);fill-opacity:1;" d="M 175 302.917969 C 175 307.519531 171.269531 311.25 166.667969 311.25 C 162.066406 311.25 158.332031 307.519531 158.332031 302.917969 C 158.332031 298.3125 162.066406 294.582031 166.667969 294.582031 C 171.269531 294.582031 175 298.3125 175 302.917969 Z M 175 302.917969 "/>
<path style=" stroke:none;fill-rule:evenodd;fill:rgb(76.861572%,15.293884%,18.431091%);fill-opacity:1;" d="M 175 347.082031 C 175 351.6875 171.269531 355.417969 166.667969 355.417969 C 162.066406 355.417969 158.332031 351.6875 158.332031 347.082031 C 158.332031 342.480469 162.066406 338.75 166.667969 338.75 C 171.269531 338.75 175 342.480469 175 347.082031 Z M 175 347.082031 "/>
</g>
</svg>
